web-app/src/assets/SVG/config.svg

<svg width="22" height="22" viewBox="0 0 22 22" fill="none" xmlns="http://www.w3.org/2000/svg">
<g clip-path="url(#clip0_546_1508)">
<path d="M17.8749 11C17.8749 10.7892 17.8658 10.5875 17.8474 10.3767L19.5524 9.08421C19.9191 8.80921 20.0199 8.29587 19.7908 7.89254L18.0766 4.93171C17.8474 4.52837 17.3524 4.36337 16.9308 4.54671L14.9599 5.38087C14.6208 5.14254 14.2633 4.93171 13.8874 4.75754L13.6216 2.64004C13.5666 2.18171 13.1724 1.83337 12.7141 1.83337H9.29494C8.82744 1.83337 8.43327 2.18171 8.37827 2.64004L8.11244 4.75754C7.7366 4.93171 7.3791 5.14254 7.03994 5.38087L5.0691 4.54671C4.64744 4.36337 4.15244 4.52837 3.92327 4.93171L2.2091 7.90171C1.97994 8.30504 2.08077 8.80921 2.44744 9.09337L4.15244 10.3859C4.1341 10.5875 4.12494 10.7892 4.12494 11C4.12494 11.2109 4.1341 11.4125 4.15244 11.6234L2.44744 12.9159C2.08077 13.1909 1.97994 13.7042 2.2091 14.1075L3.92327 17.0684C4.15244 17.4717 4.64744 17.6367 5.0691 17.4534L7.03994 16.6192C7.3791 16.8575 7.7366 17.0684 8.11244 17.2425L8.37827 19.36C8.43327 19.8184 8.82744 20.1667 9.28577 20.1667H12.7049C13.1633 20.1667 13.5574 19.8184 13.6124 19.36L13.8783 17.2425C14.2541 17.0684 14.6116 16.8575 14.9508 16.6192L16.9216 17.4534C17.3433 17.6367 17.8383 17.4717 18.0674 17.0684L19.7816 14.1075C20.0108 13.7042 19.9099 13.2 19.5433 12.9159L17.8383 11.6234C17.8658 11.4125 17.8749 11.2109 17.8749 11ZM11.0366 14.2084C9.26744 14.2084 7.82827 12.7692 7.82827 11C7.82827 9.23087 9.26744 7.79171 11.0366 7.79171C12.8058 7.79171 14.2449 9.23087 14.2449 11C14.2449 12.7692 12.8058 14.2084 11.0366 14.2084Z" fill="url(#paint0_linear_546_1508)"/>
</g>
<defs>
<linearGradient id="paint0_linear_546_1508" x1="10.9999" y1="1.83337" x2="10.9999" y2="20.1667" gradientUnits="userSpaceOnUse">
<stop stop-color="#9B51E0"/>
<stop offset="1" stop-color="#720ECF"/>
</linearGradient>
<clipPath id="clip0_546_1508">
<rect width="22" height="22" fill="white"/>
</clipPath>
</defs>
</svg>

<svg xmlns="http://www.w3.org/2000/svg" width="22" height="22" fill="none"><g clip-path="url(#a)"><path fill="url(#b)" d="M17.875 11c0-.21-.01-.412-.028-.623l1.705-1.293a.922.922 0 0 0 .239-1.191l-1.714-2.961a.905.905 0 0 0-1.146-.385l-1.971.834a6.949 6.949 0 0 0-1.073-.623l-.265-2.118a.92.92 0 0 0-.908-.807h-3.42a.922.922 0 0 0-.916.807l-.266 2.118a6.954 6.954 0 0 0-1.072.623l-1.97-.834a.905.905 0 0 0-1.147.385L2.21 7.902a.924.924 0 0 0 .238 1.191l1.705 1.293a6.727 6.727 0 0 0 0 1.237l-1.705 1.293a.922.922 0 0 0-.238 1.191l1.714 2.961a.905.905 0 0 0 1.146.385l1.97-.834c.34.239.698.45 1.073.623l.266 2.118a.92.92 0 0 0 .908.807h3.419a.92.92 0 0 0 .907-.807l.266-2.117a6.955 6.955 0 0 0 1.073-.624l1.97.834a.905.905 0 0 0 1.146-.385l1.715-2.96a.924.924 0 0 0-.239-1.192l-1.705-1.293a4.74 4.74 0 0 0 .037-.623Zm-6.838 3.208A3.212 3.212 0 0 1 7.828 11c0-1.77 1.44-3.208 3.209-3.208 1.769 0 3.208 1.439 3.208 3.208 0 1.77-1.44 3.208-3.208 3.208Z"/></g><defs><linearGradient id="b" x1="11" x2="11" y1="1.833" y2="20.167" gradientUnits="userSpaceOnUse"><stop stop-color="#9B51E0"/><stop offset="1" stop-color="#720ECF"/></linearGradient><clipPath id="a"><path fill="#fff" d="M0 0h22v22H0z"/></clipPath></defs></svg>
